X: 43587
T: Young Scotty
R: jig
M: 6/8
K: Gmajor
D|:G2G G2B|AFD DEF|G2B d2B|def g2f|e2c cde|d2B G2A/B/|c2B A2G|GFE DEF|
G2G G2B|AFD DEF|G2B d2B|def g2f|e2c gfe|edc BAG|FAF DEF|G3 G2A|
Bee e2f|g3 gfe|f2d agf|e3 edB|Add d2e|f3 f2g|a2A gfe|ded cBA|
G2G G2B|AFD DEF|G2B d2B|def g2f|e2c gfe|edc BAG|FAF DEF|G3 G2D:|

